dist/icons/gallery.svg

<svg xmlns="http://www.w3.org/2000/svg" xmlns:xlink="http://www.w3.org/1999/xlink" width="200" zoomAndPan="magnify" viewBox="0 0 150 149.999998" height="200" preserveAspectRatio="xMidYMid meet" version="1.0"><path fill="#ffffff" d="M 106.96875 0.375 L 42.285156 0.375 C 16.921875 0.375 0 18.527344 0 44.527344 L 0 105.472656 C 0 131.496094 16.882812 149.625 42.285156 149.625 L 106.960938 149.625 C 132.371094 149.625 149.253906 131.496094 149.253906 105.472656 L 149.253906 44.527344 C 149.253906 18.503906 132.371094 0.375 106.96875 0.375 Z M 51.28125 31.703125 C 40.570312 31.703125 31.875 40.402344 31.875 51.117188 C 31.875 61.835938 40.570312 70.53125 51.28125 70.53125 C 62 70.53125 70.695312 61.835938 70.695312 51.117188 C 70.695312 40.398438 62 31.703125 51.28125 31.703125 Z M 124.105469 73.027344 C 113.34375 66.554688 101.027344 69.882812 93.132812 80.101562 C 91.9375 81.648438 90.960938 83.070312 89.589844 85.234375 L 88.066406 87.679688 L 85.828125 91.242188 C 82.414062 96.5 80.167969 98.921875 76.964844 100.652344 C 73.367188 102.605469 71.023438 102.15625 66.097656 99.035156 L 61.167969 95.851562 C 59.261719 94.675781 57.773438 93.890625 56.035156 93.160156 C 44.574219 88.359375 35.824219 93.46875 26.277344 105.292969 L 22.484375 109.96875 L 8.765625 126.625 C 6.789062 129.007812 7.117188 132.546875 9.5 134.523438 C 11.886719 136.5 15.421875 136.171875 17.398438 133.785156 C 19.289062 131.507812 21.019531 129.421875 22.628906 127.472656 L 36.109375 111.003906 C 42.25 103.726562 46.695312 101.410156 51.699219 103.503906 C 52.855469 103.988281 53.945312 104.574219 55.472656 105.523438 L 58.21875 107.296875 L 61.488281 109.363281 C 68.839844 113.703125 74.886719 114.539062 82.308594 110.515625 C 88.332031 107.257812 91.675781 103.1875 97.1875 94.261719 L 100.109375 89.628906 C 100.449219 89.113281 100.765625 88.652344 101.074219 88.21875 L 102.011719 86.957031 C 106.632812 80.976562 112.789062 79.3125 118.320312 82.636719 C 121.976562 84.84375 124.839844 87.175781 129.84375 91.929688 L 135.0625 96.953125 C 136.0625 97.910156 136.894531 98.695312 137.671875 99.410156 L 139.957031 101.457031 C 142.292969 103.488281 145.835938 103.242188 147.871094 100.90625 C 149.90625 98.570312 149.660156 95.027344 147.320312 92.992188 C 146.375 92.171875 145.511719 91.390625 144.476562 90.421875 L 138.820312 84.992188 C 132.445312 78.871094 128.972656 75.960938 124.105469 73.027344 Z M 124.105469 73.027344 " fill-opacity="1" fill-rule="evenodd"/></svg>

<svg xmlns="http://www.w3.org/2000/svg" width="200" viewBox="0 0 150 150" height="200" version="1.0"><path fill="#fff" d="M106.969.375H42.285C16.922.375 0 18.527 0 44.527v60.946c0 26.023 16.883 44.152 42.285 44.152h64.676c25.41 0 42.293-18.129 42.293-44.152V44.527c0-26.023-16.883-44.152-42.285-44.152ZM51.28 31.703c-10.71 0-19.406 8.7-19.406 19.414 0 10.719 8.695 19.414 19.406 19.414 10.719 0 19.414-8.695 19.414-19.414 0-10.719-8.695-19.414-19.414-19.414Zm72.824 41.324c-10.761-6.472-23.078-3.144-30.972 7.075-1.195 1.546-2.172 2.968-3.543 5.132l-1.524 2.446-2.238 3.562c-3.414 5.258-5.66 7.68-8.863 9.41-3.598 1.953-5.942 1.504-10.867-1.617l-4.93-3.183c-1.906-1.176-3.395-1.961-5.133-2.692-11.46-4.8-20.21.309-29.758 12.133l-3.793 4.676-13.718 16.656a5.608 5.608 0 1 0 8.633 7.16 3100.61 3100.61 0 0 0 5.23-6.312l13.48-16.47c6.141-7.276 10.586-9.593 15.59-7.5 1.156.485 2.246 1.071 3.774 2.02l2.746 1.774 3.27 2.066c7.35 4.34 13.398 5.176 20.82 1.153 6.023-3.258 9.367-7.329 14.879-16.254l2.921-4.633c.34-.516.657-.977.965-1.41l.938-1.262c4.62-5.98 10.777-7.644 16.308-4.32 3.657 2.207 6.52 4.539 11.524 9.293l5.219 5.023c1 .957 1.832 1.742 2.609 2.457l2.285 2.047a5.613 5.613 0 0 0 7.914-.55 5.606 5.606 0 0 0-.55-7.915 98.104 98.104 0 0 1-2.844-2.57l-5.657-5.43c-6.375-6.12-9.847-9.031-14.715-11.965Zm0 0" fill-rule="evenodd"/></svg>
